packages/ui-icons/svg/Solid/cloud-download.svg

<svg viewBox="0 0 1920 1920" version="1.1" xmlns="http://www.w3.org/2000/svg">
    <path d="M960,73 C1181.81647,73 1368.84706,216.661176 1438.08,415.211765 C1448.13176,414.534118 1458.07059,411.823529 1468.23529,411.823529 C1717.38353,411.823529 1920,614.44 1920,863.588235 C1920,1112.73647 1717.38353,1315.35294 1468.23529,1315.35294 L1468.23529,1315.35294 L1016.47059,1315.35294 L1016.47059,1630.79765 L1202.37176,1444.78353 L1282.33412,1524.63294 L960,1846.96706 L637.665882,1524.63294 L717.628235,1444.78353 L903.529412,1630.79765 L903.529412,1315.35294 L395.294118,1315.35294 C177.317647,1315.35294 0,1138.03529 0,920.058824 C0,702.082353 177.317647,524.764706 395.294118,524.764706 C416.188235,524.764706 436.517647,527.475294 456.847059,530.750588 C482.597647,274.487059 697.072941,73 960,73 Z M1016.47059,920.058824 L903.529412,920.058824 L903.529412,1202.41176 L1016.47059,1202.41176 L1016.47059,920.058824 Z" stroke="none" stroke-width="1" fill-rule="evenodd"/>
</svg>

<svg viewBox="0 0 1920 1920" xmlns="http://www.w3.org/2000/svg">
    <path d="M960 73c221.816 0 408.847 143.661 478.08 342.212 10.052-.678 19.99-3.388 30.155-3.388 249.149 0 451.765 202.616 451.765 451.764s-202.616 451.765-451.765 451.765h-451.764v315.445l185.9-186.014 79.963 79.849L960 1846.967l-322.334-322.334 79.962-79.85 185.901 186.015v-315.445H395.294C177.318 1315.353 0 1138.035 0 920.059c0-217.977 177.318-395.294 395.294-395.294 20.894 0 41.224 2.71 61.553 5.986C482.597 274.487 697.073 73 960 73Zm56.47 847.059H903.53v282.353h112.94V920.059Z" fill-rule="evenodd"/>
</svg>
